packages/tokens/icons/lock/size32Px.svg

<svg viewBox="0 0 32 32" fill="none" xmlns="http://www.w3.org/2000/svg" width="1em" height="1em"><path d="M7.5 15C7.5 14.1716 8.17157 13.5 9 13.5L23 13.5C23.8284 13.5 24.5 14.1716 24.5 15L24.5 27C24.5 27.8284 23.8284 28.5 23 28.5H9C8.17157 28.5 7.5 27.8284 7.5 27L7.5 15Z" stroke="currentColor"/><path d="M21.5 13V9C21.5 5.96243 19.0376 3.5 16 3.5V3.5C12.9624 3.5 10.5 5.96243 10.5 9L10.5 13" stroke="currentColor"/><path d="M16 18.5C14.8954 18.5 14 19.3954 14 20.5C14 21.2403 14.4022 21.8866 15 22.2324L14.5 24.5H17.5L17 22.2324C17.5978 21.8866 18 21.2403 18 20.5C18 19.3954 17.1046 18.5 16 18.5Z" stroke="currentColor" stroke-linejoin="round"/></svg>

<svg xmlns="http://www.w3.org/2000/svg" fill="none" viewBox="0 0 32 32" width="1em" height="1em"><path stroke="currentColor" d="M7.5 15A1.5 1.5 0 0 1 9 13.5h14a1.5 1.5 0 0 1 1.5 1.5v12a1.5 1.5 0 0 1-1.5 1.5H9A1.5 1.5 0 0 1 7.5 27V15Zm14-2V9a5.5 5.5 0 1 0-11 0v4"/><path stroke="currentColor" stroke-linejoin="round" d="M16 18.5a2 2 0 0 0-1 3.732l-.5 2.268h3l-.5-2.268a2 2 0 0 0-1-3.732Z"/></svg>
